X: 696
T: Zhangsheng xi yuanyang
L: 1/16
M: 2/4
K: Eb
B B B c e e d c [I:setbarnb 1]| 
B2 c B G2 F G | 
B B B c e e d c | 
B2 c B G2 F G | 
B GB4G B | 
c e c B B2 F2 | 
G B B F G B G F | 
E2> F2C4 | 
G F E2 F3 G | 
B2> G2 E2 G2 | 
F2 G2 F G F E | 
F EC4C E | 
F2> G2 E2 D C | 
c2> e2 c B A G | 
B2> c2B4 |]

@@@ Tune index: 9570
